packages/IcoMoon/src/ParagraphRightIcon/index.svg

<svg version="1.1" xmlns="http://www.w3.org/2000/svg" width="16" height="16" viewBox="0 0 16 16">
<path d="M0 1h16v2h-16zM6 4h10v2h-10zM6 10h10v2h-10zM0 7h16v2h-16zM0 13h16v2h-16z"></path>
</svg>

<svg xmlns="http://www.w3.org/2000/svg" viewBox="0 0 16 16">
  <path d="M0 1h16v2H0zm6 3h10v2H6zm0 6h10v2H6zM0 7h16v2H0zm0 6h16v2H0z"/>
</svg>
